flaticon/social-media/picasa.svg

<svg xmlns="http://www.w3.org/2000/svg" width="32" height="32" viewBox="0 0 24 24">
    <path d="M17.199219 1.183594L16.960938 1.0625C14.28125-.136719 11.238281-.335938 8.28125.625L7.640625.824219 17.199219 9.703125zM16.398438 7.863281L9.199219 1.144531C11.640625.503906 14.160156.703125 16.398438 1.664062zM1.078125 16.945312C2.078125 19.183594 3.71875 21.023438 5.800781 22.304688L6.398438 22.664062 6.398438 11.425781.960938 16.703125zM5.601562 13.34375L5.601562 21.222656C4 20.105469 2.761719 18.625 1.921875 16.863281zM11.359375 5.984375L11.679688 5.703125 11.359375 5.425781C11.160156 5.265625 7.078125 1.582031 6.960938 1.464844L6.761719 1.265625 6.519531 1.382812C2.519531 3.464844 0 7.542969 0 12.023438 0 13.023438.160156 14.105469.441406 15.144531L.601562 15.785156 1.078125 15.34375C1.398438 15.0625 11.160156 6.183594 11.359375 5.984375zM.800781 12.023438C.800781 7.945312 3.039062 4.183594 6.640625 2.222656 7.359375 2.863281 9.640625 4.945312 10.480469 5.703125 9 7.0625 2.839844 12.664062 1.039062 14.304688.878906 13.503906.800781 12.742188.800781 12.023438zM7.199219 23.0625L7.441406 23.144531C8.558594 23.582031 9.71875 23.863281 10.921875 23.984375L13.078125 23.984375C17.320312 23.582031 20.960938 21.105469 22.761719 17.34375L23.039062 16.785156 7.199219 16.785156zM8 17.582031L21.761719 17.582031C19.960938 20.742188 16.761719 22.824219 13.039062 23.183594L10.960938 23.183594C9.921875 23.105469 8.960938 22.863281 8 22.503906zM18.640625 2.0625L18 1.664062 18 15.984375 23.359375 15.984375 23.441406 15.664062C23.800781 14.542969 24 13.222656 24 12.023438 24 8.023438 22 4.304688 18.640625 2.0625zM22.761719 15.183594L18.800781 15.183594 18.800781 3.183594C21.558594 5.304688 23.199219 8.542969 23.199219 12.023438 23.199219 13.0625 23.039062 14.183594 22.761719 15.183594zM22.761719 15.183594"/>
</svg>

<svg xmlns="http://www.w3.org/2000/svg" width="32" height="32" viewBox="0 0 24 24">
    <path d="M17.2 1.184l-.24-.121c-2.679-1.2-5.722-1.399-8.679-.438l-.64.2 9.558 8.878zm-.802 6.68L9.2 1.143c2.442-.64 4.961-.44 7.2.52zm0 0M1.078 16.945c1 2.239 2.64 4.078 4.723 5.36l.597.36v-11.24L.961 16.704zm4.524-3.601v7.879a11.059 11.059 0 0 1-3.68-4.36zm0 0M11.36 5.984l.32-.28-.32-.278c-.2-.16-4.282-3.844-4.4-3.961l-.198-.2-.242.118C2.52 3.465 0 7.543 0 12.023c0 1 .16 2.082.441 3.122l.16.64.477-.441c.32-.281 10.082-9.16 10.281-9.36zM.8 12.024c0-4.079 2.24-7.84 5.84-9.801.72.64 3 2.722 3.84 3.48-1.48 1.36-7.64 6.961-9.44 8.602-.161-.801-.24-1.563-.24-2.282zm0 0M7.2 23.063l.241.082a13.1 13.1 0 0 0 3.48.84h2.157c4.242-.403 7.883-2.88 9.684-6.641l.277-.559H7.2zm.8-5.481h13.762c-1.801 3.16-5 5.242-8.723 5.602h-2.078c-1.04-.079-2-.32-2.961-.68zm0 0M18.64 2.063L18 1.663v14.32h5.36l.081-.32c.36-1.121.559-2.441.559-3.64 0-4-2-7.72-5.36-9.961zm4.122 13.12H18.8v-12c2.758 2.122 4.398 5.36 4.398 8.84 0 1.04-.16 2.16-.437 3.16zm0 0"/>
</svg>
